src/main/resources/icons/RIcons/icons/table/detailView.svg

<svg width="16" height="16" viewBox="0 0 16 16" fill="none" xmlns="http://www.w3.org/2000/svg"><rect id="frame" width="16" height="16" fill="none"/><path fill-rule="evenodd" clip-rule="evenodd" d="M6 5h2v3h2V6h2v5H4V9h2V5z" fill="#6E6E6E"/><path fill-rule="evenodd" clip-rule="evenodd" d="M15 1H1v14h14V1zm-2 2H3v10h10V3z" fill="#6E6E6E"/></svg>

<svg width="16" height="16" viewBox="0 0 16 16" fill="none" xmlns="http://www.w3.org/2000/svg">
<path fill-rule="evenodd" clip-rule="evenodd" d="M6 5H8V8H10V6H12V11H10H8H6H4V9H6V5Z" fill="#6E6E6E"/>
<path fill-rule="evenodd" clip-rule="evenodd" d="M15 1H1V15H15V1ZM13 3H3V13H13V3Z" fill="#6E6E6E"/>
</svg>
